svg/transport/ABS_fill.svg

<?xml version="1.0" encoding="UTF-8"?>
<svg width="24px" height="24px" viewBox="0 0 24 24" version="1.1" xmlns="http://www.w3.org/2000/svg" xmlns:xlink="http://www.w3.org/1999/xlink">
    <title>ABS_fill</title>
    <g id="页面-1" stroke="none" stroke-width="1" fill="none" fill-rule="evenodd">
        <g id="Transport" transform="translate(-192.000000, -144.000000)">
            <g id="ABS_fill" transform="translate(192.000000, 144.000000)">
                 <path d="M24,0 L24,24 L0,24 L0,0 L24,0 Z M12.5934901,23.257841 L12.5819402,23.2595131 L12.5108777,23.2950439 L12.4918791,23.2987469 L12.4918791,23.2987469 L12.4767152,23.2950439 L12.4056548,23.2595131 C12.3958229,23.2563662 12.3870493,23.2590235 12.3821421,23.2649074 L12.3780323,23.275831 L12.360941,23.7031097 L12.3658947,23.7234994 L12.3769048,23.7357139 L12.4804777,23.8096931 L12.4953491,23.8136134 L12.4953491,23.8136134 L12.5071152,23.8096931 L12.6106902,23.7357139 L12.6232938,23.7196733 L12.6232938,23.7196733 L12.6266527,23.7031097 L12.609561,23.275831 C12.6075724,23.2657013 12.6010112,23.2592993 12.5934901,23.257841 L12.5934901,23.257841 Z M12.8583906,23.1452862 L12.8445485,23.1473072 L12.6598443,23.2396597 L12.6498822,23.2499052 L12.6498822,23.2499052 L12.6471943,23.2611114 L12.6650943,23.6906389 L12.6699349,23.7034178 L12.6699349,23.7034178 L12.678386,23.7104931 L12.8793402,23.8032389 C12.8914285,23.8068999 12.9022333,23.8029875 12.9078286,23.7952264 L12.9118235,23.7811639 L12.8776777,23.1665331 C12.8752882,23.1545897 12.8674102,23.1470016 12.8583906,23.1452862 L12.8583906,23.1452862 Z M12.1430473,23.1473072 C12.1332178,23.1423925 12.1221763,23.1452606 12.1156365,23.1525954 L12.1099173,23.1665331 L12.0757714,23.7811639 C12.0751323,23.7926639 12.0828099,23.8018602 12.0926481,23.8045676 L12.108256,23.8032389 L12.3092106,23.7104931 L12.3186497,23.7024347 L12.3186497,23.7024347 L12.3225043,23.6906389 L12.340401,23.2611114 L12.337245,23.2485176 L12.337245,23.2485176 L12.3277531,23.2396597 L12.1430473,23.1473072 Z" id="MingCute" fill-rule="nonzero"></path>
                <path d="M12,4 C7.58172,4 4,7.58172 4,12 C4,16.4183 7.58172,20 12,20 C16.4183,20 20,16.4183 20,12 C20,7.58172 16.4183,4 12,4 Z M11,10 C10.4477,10 10,10.4477 10,11 L11,11 L11,10 Z M10,15 L10,13 L11,13 L11,15 C11,15.5523 11.4477,16 12,16 L14,16 C15.1046,16 16,15.1046 16,14 L16,12 L16,10 C16,8.89543 15.1046,8 14,8 L12,8 L11,8 C9.34315,8 8,9.34315 8,11 L8,15 C8,15.5523 8.44772,16 9,16 C9.55228,16 10,15.5523 10,15 Z M14,14 L13,14 L13,13 L14,13 L14,14 Z M14,11 L13,11 L13,10 L14,10 L14,11 Z M4.79883,6.60058 C5.13052,6.15899 5.04143,5.53212 4.59985,5.20043 C4.15826,4.86874 3.53139,4.95783 3.1997,5.39942 C1.81871,7.23797 1,9.52482 1,12 C1,14.4752 1.81871,16.762 3.1997,18.6006 C3.53139,19.0422 4.15826,19.1313 4.59985,18.7996 C5.04143,18.4679 5.13052,17.841 4.79883,17.3994 C3.66906,15.8953 3,14.0272 3,12 C3,9.97276 3.66906,8.10467 4.79883,6.60058 Z M20.8003,5.39942 C20.4686,4.95783 19.8417,4.86874 19.4002,5.20043 C18.9586,5.53212 18.8695,6.15899 19.2012,6.60058 C20.3309,8.10467 21,9.97276 21,12 C21,14.0272 20.3309,15.8953 19.2012,17.3994 C18.8695,17.841 18.9586,18.4679 19.4002,18.7996 C19.8417,19.1313 20.4686,19.0422 20.8003,18.6006 C22.1813,16.762 23,14.4752 23,12 C23,9.52482 22.1813,7.23797 20.8003,5.39942 Z" id="形状" fill="#09244B"></path>
            </g>
        </g>
    </g>
</svg>

<svg xmlns="http://www.w3.org/2000/svg" width="24" height="24"><g fill="none" fill-rule="evenodd"><path d="M24 0v24H0V0h24ZM12.593 23.258l-.011.002-.071.035-.02.004-.014-.004-.071-.035c-.01-.004-.019-.001-.024.005l-.004.01-.017.428.005.02.01.013.104.074.015.004.012-.004.104-.074.012-.016.004-.017-.017-.427c-.002-.01-.009-.017-.017-.018Zm.265-.113-.013.002-.185.093-.01.01-.003.011.018.43.005.012.008.007.201.093c.012.004.023 0 .029-.008l.004-.014-.034-.614c-.003-.012-.01-.02-.02-.022Zm-.715.002a.023.023 0 0 0-.027.006l-.006.014-.034.614c0 .012.007.02.017.024l.015-.002.201-.093.01-.008.004-.011.017-.43-.003-.012-.01-.01-.184-.092Z"/><path fill="#09244B" d="M12 4a8 8 0 1 0 0 16 8 8 0 0 0 0-16Zm-1 6a1 1 0 0 0-1 1h1v-1Zm-1 5v-2h1v2a1 1 0 0 0 1 1h2a2 2 0 0 0 2-2v-4a2 2 0 0 0-2-2h-3a3 3 0 0 0-3 3v4a1 1 0 1 0 2 0Zm4-1h-1v-1h1v1Zm0-3h-1v-1h1v1ZM4.799 6.6a1 1 0 0 0-1.6-1.2A10.956 10.956 0 0 0 1 12c0 2.475.819 4.762 2.2 6.6a1 1 0 1 0 1.599-1.2A8.956 8.956 0 0 1 3 12c0-2.027.67-3.895 1.799-5.4ZM20.8 5.4a1 1 0 1 0-1.599 1.2A8.956 8.956 0 0 1 21 12c0 2.027-.67 3.895-1.799 5.4a1 1 0 0 0 1.6 1.2A10.956 10.956 0 0 0 23 12c0-2.475-.819-4.762-2.2-6.6Z"/></g></svg>
